%
(botPlatePock)
(T1  D=0.1875 CR=0 - ZMIN=0.2075 - flat end mill)
G90 G94
G17
G20
G28 G91 Z0
G90

(2D Pocket1)
M9
T1 M6
S1000 M3
G54
M9
G0 X-5.6293 Y5.945
Z0.8812
Z0.4812
G1 Z0.2262 F40
G18 G2 X-5.6106 Z0.2075 I0.0187
G1 X-5.5893
X-1.4746
G17 G3 X-1.4618 Y5.9578 J0.0128
G1 Y6.0421
G3 X-1.4746 Y6.0549 I-0.0128
G1 X-5.5897
G3 X-5.599 Y6.0455 J-0.0094
G1 X-5.5988 Y5.8024
G3 X-5.5894 Y5.793 I0.0094
G1 X-1.3225
G3 X-1.3098 Y5.8058 J0.0128
G1 Y6.1942
G3 X-1.3225 Y6.2069 I-0.0128
G1 X-5.5896
G3 X-5.599 Y6.1976 J-0.0094
G1 X-5.5989 Y5.6503
G3 X-5.5895 Y5.641 I0.0094
G1 X-1.1705
G3 X-1.1577 Y5.6537 J0.0128
G1 Y6.3462
G3 X-1.1705 Y6.359 I-0.0128
G1 X-5.5895
G3 X-5.5989 Y6.3496 J-0.0094
G1 X-5.5988 Y5.4981
G3 X-5.5894 Y5.4887 I0.0094
G1 X-1.0055
Y6.5112
X-5.5
X-5.5897
G3 X-5.5927 Y6.511 J-0.0188
G1 X-5.6108 Y6.5081
X-5.614 Y6.5076 Z0.2078
X-5.6171 Y6.5071 Z0.2086
X-5.62 Y6.5066 Z0.21
X-5.6227 Y6.5062 Z0.2119
X-5.6249 Y6.5059 Z0.2142
X-5.6268 Y6.5056 Z0.2169
X-5.6282 Y6.5054 Z0.2198
X-5.629 Y6.5052 Z0.223
X-5.6293 Z0.2262
G0 Z0.8812
X5.6287 Y2.1842
Z0.4812
G1 Z0.2262 F40
G18 G3 X5.61 Z0.2075 I-0.0187
G1 X5.5894
X4.456
G17 G3 X4.4434 Y2.1715 J-0.0126
G1 Y2.0357
G3 X4.4904 Y1.9987 I0.038
G1 X4.9381 Y2.1071
G2 X4.9448 Y2.1081 I0.0089 J-0.0369
G1 X5.5894 Y2.1461
G3 X5.6251 Y2.1833 I-0.0022 J0.0379
G1 X5.6274 Y2.2974
G3 X5.5894 Y2.3362 I-0.038 J0.0008
G1 X4.304
G3 X4.2914 Y2.3236 J-0.0126
G1 Y2.0353
G3 X4.3488 Y2.0026 I0.038
G1 X4.7751 Y2.2549
G2 X4.7927 Y2.2602 I0.0194 J-0.0327
G1 X5.5894 Y2.2982
G3 X5.6256 Y2.3356 I-0.0018 J0.038
G1 X5.6274 Y2.4498
G3 X5.5893 Y2.4884 I-0.038 J0.0006
G1 X4.1391
Y2.125
Y2.0353
G3 X4.1394 Y2.0323 I0.0187
G1 X4.1422 Y2.0142
X4.1427 Y2.011 Z0.2078
X4.1432 Y2.0079 Z0.2086
X4.1437 Y2.005 Z0.21
X4.1441 Y2.0023 Z0.2119
X4.1445 Y2.0001 Z0.2142
X4.1448 Y1.9982 Z0.2169
X4.145 Y1.9968 Z0.2198
X4.1451 Y1.996 Z0.223
X4.1452 Y1.9957 Z0.2262
G0 Z0.8812
X4.4434 Y10.004
Z0.4812
G1 Z0.2262 F40
G19 G2 Y9.9853 Z0.2075 J-0.0187
G1 Y9.9646
Y9.832
G17 G3 X4.4562 Y9.8192 I0.0128
G1 X5.5894
G3 Y9.8952 J0.038
G1 X4.9521 Y9.8948
G2 X4.9464 Y9.8952 J0.038
G1 X4.4814 Y9.9646
G2 X4.4775 Y9.9655 I0.0056 J0.0376
G1 X4.339 Y10.0015
G3 X4.2914 Y9.9647 I-0.0096 J-0.0368
G1 Y9.6799
G3 X4.3042 Y9.6672 I0.0128
G1 X5.5894
G3 X5.6274 Y9.7052 J0.038
X5.5892 Y9.7432 I-0.038
G1 X4.8109 Y9.7395
G2 X4.7943 Y9.7432 I-0.0002 J0.038
G1 X4.3294 Y9.9647
G3 X4.3223 Y9.9673 I-0.0163 J-0.0343
G1 X4.1864 Y10.0013
G3 X4.1391 Y9.9645 I-0.0092 J-0.0369
G1 Y9.5149
X5.5
X5.5897
G3 X5.5927 Y9.5152 J0.0188
G1 X5.6108 Y9.518
X5.614 Y9.5185 Z0.2078
X5.6171 Y9.519 Z0.2086
X5.62 Y9.5195 Z0.21
X5.6227 Y9.5199 Z0.2119
X5.6249 Y9.5203 Z0.2142
X5.6268 Y9.5206 Z0.2169
X5.6282 Y9.5208 Z0.2198
X5.629 Y9.5209 Z0.223
X5.6293 Y9.521 Z0.2262
G0 Z0.8812
X-5.6293 Y9.8192
Z0.4812
G1 Z0.2262 F40
G18 G2 X-5.6106 Z0.2075 I0.0187
G1 X-5.5893
X-4.4564
G17 G3 X-4.4436 Y9.832 J0.0128
G1 Y9.9645
G3 X-4.4903 Y10.0015 I-0.038
G1 X-4.9402 Y9.8962
G2 X-4.9466 Y9.8952 I-0.0087 J0.037
G1 X-5.5893 Y9.8572
G3 X-5.6251 Y9.82 I0.0022 J-0.0379
G1 X-5.6274 Y9.706
G3 X-5.5894 Y9.6672 I0.038 J-0.0008
G1 X-4.3044
G3 X-4.2916 Y9.6799 J0.0128
G1 Y9.9644
G3 X-4.3487 Y9.9973 I-0.038
G1 X-4.7773 Y9.7483
G2 X-4.7946 Y9.7432 I-0.0191 J0.0329
G1 X-5.5894 Y9.7052
G3 X-5.6256 Y9.6679 I0.0018 J-0.038
G1 X-5.6277 Y9.5537
G3 X-5.5897 Y9.5149 I0.038 J-0.0007
G1 X-4.1393
Y9.875
Y9.9647
G3 X-4.1396 Y9.9677 I-0.0187
G1 X-4.1424 Y9.9858
X-4.1429 Y9.989 Z0.2078
X-4.1434 Y9.9921 Z0.2086
X-4.1439 Y9.995 Z0.21
X-4.1443 Y9.9977 Z0.2119
X-4.1447 Y9.9999 Z0.2142
X-4.145 Y10.0018 Z0.2169
X-4.1452 Y10.0032 Z0.2198
X-4.1453 Y10.004 Z0.223
X-4.1454 Y10.0043 Z0.2262
G0 Z0.8812
X-4.4436 Y1.9957
Z0.4812
G1 Z0.2262 F40
G19 G3 Y2.0144 Z0.2075 J0.0187
G1 Y2.0354
Y2.1714
G17 G3 X-4.4564 Y2.1842 I-0.0128
G1 X-5.5896
G3 X-5.6276 Y2.1461 J-0.038
X-5.5896 Y2.1081 I0.038
G1 X-4.9509 Y2.1086
G2 X-4.945 Y2.1081 J-0.038
G1 X-4.4816 Y2.0354
G2 X-4.478 Y2.0346 I-0.0059 J-0.0376
G1 X-4.3392 Y1.9985
G3 X-4.2916 Y2.0353 I0.0096 J0.0368
G1 Y2.3234
G3 X-4.3044 Y2.3362 I-0.0128
G1 X-5.5896
G3 X-5.6276 Y2.2981 J-0.038
X-5.5894 Y2.2602 I0.038 J0.0001
G1 X-4.8097 Y2.264
G2 X-4.7929 Y2.2602 I0.0002 J-0.038
G1 X-4.3296 Y2.0353
G3 X-4.3223 Y2.0327 I0.0166 J0.0342
G1 X-4.1866 Y1.9985
G3 X-4.1393 Y2.0354 I0.0093 J0.0369
G1 Y2.4884
X-5.5
X-5.5897
G3 X-5.5927 Y2.4882 J-0.0187
G1 X-5.6108 Y2.4853
X-5.614 Y2.4848 Z0.2078
X-5.6171 Y2.4843 Z0.2086
X-5.62 Y2.4839 Z0.21
X-5.6227 Y2.4835 Z0.2119
X-5.6249 Y2.4831 Z0.2142
X-5.6268 Y2.4828 Z0.2169
X-5.6282 Y2.4826 Z0.2198
X-5.629 Y2.4824 Z0.223
X-5.6293 Z0.2262
G0 Z0.8812
M9
G28 G91 Z0
G28 X0 Y0
M30
%
