%
(botPlateface)
(T1  D=0.1875 CR=0 - ZMIN=0.25 - flat end mill)
G90 G94
G17
G20
G28 G91 Z0
G90

(Face3)
M9
T1 M6
S1000 M3
G54
M8
G0 X3.9969 Y-5.4145
Z0.8812
Z0.4812
G1 Z0.2688 F40
G18 G3 X3.9781 Z0.25 I-0.0187
G1 X3.875
X-3.875
G17 G2 Y-5.2371 J0.0887
G1 X3.875
G3 Y-5.0597 J0.0887
G1 X-3.875
G2 Y-4.8822 J0.0887
G1 X3.875
G3 Y-4.7048 J0.0887
G1 X-3.875
G2 Y-4.5273 J0.0887
G1 X3.875
G3 Y-4.3499 J0.0887
G1 X-3.875
G2 Y-4.1725 J0.0887
G1 X3.875
G3 Y-3.995 J0.0887
G1 X-3.875
G2 Y-3.8176 J0.0887
G1 X3.875
G3 Y-3.6402 J0.0887
G1 X-3.875
G18 G3 X-3.8938 Z0.2688 K0.0188
G0 Z0.4812
X-5.6219 Y-3.4627
G1 Z0.2688 F40
G2 X-5.6031 Z0.25 I0.0187
G1 X-5.5
X5.5
G17 G3 Y-3.2853 J0.0887
G1 X-5.5
G2 Y-3.1078 J0.0887
G1 X5.5
G3 Y-2.9304 J0.0887
G1 X-5.5
G2 Y-2.753 J0.0887
G1 X5.5
G3 Y-2.5755 J0.0887
G1 X-5.5
G2 Y-2.3981 J0.0887
G1 X5.5
G3 Y-2.2207 J0.0887
G1 X-5.5
G2 Y-2.0432 J0.0887
G1 X5.5
G3 Y-1.8658 J0.0887
G1 X-5.5
G2 Y-1.6883 J0.0887
G1 X5.5
G3 Y-1.5109 J0.0887
G1 X-5.5
G2 Y-1.3335 J0.0887
G1 X5.5
G3 Y-1.156 J0.0887
G1 X-5.5
G2 Y-0.9786 J0.0887
G1 X5.5
G3 Y-0.8012 J0.0887
G1 X-5.5
G2 Y-0.6237 J0.0887
G1 X5.5
G3 Y-0.4463 J0.0887
G1 X-5.5
G2 Y-0.2688 J0.0887
G1 X5.5
G3 Y-0.0914 J0.0887
G1 X-5.5
G2 Y0.086 J0.0887
G1 X5.5
G3 Y0.2635 J0.0887
G1 X-5.5
G2 Y0.4409 J0.0887
G1 X5.5
G3 Y0.6183 J0.0887
G1 X-5.5
G2 Y0.7958 J0.0887
G1 X5.5
G3 Y0.9732 J0.0887
G1 X-5.5
G2 Y1.1507 J0.0887
G1 X5.5
G3 Y1.3281 J0.0887
G1 X-5.5
G2 Y1.5055 J0.0887
G1 X5.5
G3 Y1.683 J0.0887
G1 X-5.5
G2 Y1.8604 J0.0887
G1 X5.5
G3 Y2.0378 J0.0887
G1 X-5.5
G2 Y2.2153 J0.0887
G1 X5.5
G3 Y2.3927 J0.0887
G1 X-5.5
G2 Y2.5702 J0.0887
G1 X5.5
G3 Y2.7476 J0.0887
G1 X-5.5
G2 Y2.925 J0.0887
G1 X5.5
G3 Y3.1025 J0.0887
G1 X-5.5
G2 Y3.2799 J0.0887
G1 X5.5
G3 Y3.4573 J0.0887
G1 X-5.5
G18 G3 X-5.5188 Z0.2688 K0.0188
G0 Z0.4812
X-3.9969 Y3.6348
G1 Z0.2688 F40
G2 X-3.9781 Z0.25 I0.0187
G1 X-3.875
X3.875
G17 G3 Y3.8122 J0.0887
G1 X-3.875
G2 Y3.9897 J0.0887
G1 X3.875
G3 Y4.1671 J0.0887
G1 X-3.875
G2 Y4.3445 J0.0887
G1 X3.875
G3 Y4.522 J0.0887
G1 X-3.875
G2 Y4.6994 J0.0887
G1 X3.875
G3 Y4.8768 J0.0887
G1 X-3.875
G2 Y5.0543 J0.0887
G1 X3.875
G3 Y5.2317 J0.0887
G1 X-3.875
G2 Y5.4092 J0.0887
G1 X3.875
G18 G2 X3.8938 Z0.2688 K0.0188
G0 Z0.8812
G17
M9
G28 G91 Z0
G28 X0 Y0
M30
%
